X:426
T: Abschied von der Heimat (145), S. 324
N: T0314
O: Luxemburg
S: Singendes Volk, Esch-Alzette 1937, posth.]
N: Rammeldingen, hhh J.P. Gloden 26.12.1932
R: historische, Kriegs- und Soldatenlieder]
M: 4/4
L: 1/16
K: D
 | D4F2A2D4F2A2 | A4G2F2F2E2E4 |
D4F2A2D4F2A2 | A4G2F2F2E2E4 |
D3E2F2GA4d4 | B3Bd2B2A4z4 |
B4BBB2A4F2A2 | A4G4F4z4 |
D3E2FG2A4d4 | B3Bd2B2A4z4 |
B4BBB2A4F2A2 | A4G4F4z4

@@@ Tune index: 8480
